!!!OTL: Koenig und Marquise Es giengen drey Frawen,
!!!ARE: Europa, Mitteleuropa, Deutschland
!!!YOR: 2, S. 30
!!    1586 gedruckt in Muenchen
!!!SCT: Q1035A
!!!YEM: Copyright 1995, estate of Helmut Schaffrath.
**kern
*ICvox
*Ivox
*M6/8
*k[f#]
*e:
{8b
=1
4b
8a
4gn
8e
=2
8b
4ddn
4b}
{8ccn
=3
8b
8b
8a
4gn
8e
=4
8b
4ddn
4b}
{8b
=5
4ee
8ee
4ddn
8b
=6
4ddn
8ccn
4b}
{8ccn
=7
8b
8b
8a
8gn
8gn
8e
=8
8b
4ddn
4b}
{8b
=9
4ee
8ee
4ddn
8b
=10
4ddn
8ccn
4b}
{8ccn
=11
4b
8a
8.b
16a
8gn
=12
4f#
8gn
4e
8f#}
=13
{4dn
8e
8e
4e
=14
[4.e
4e]}
==
!!!AGN: geistlich
!! Geistliche Melodie, Ursprung der Balladenmelodie ?
!!    Schlusstakt rhythmisch korrigiert.
!!!ONB: ESAC (Essen Associative Code) Database: BALLADE
!!!AMT: compound duple
!!!AIN: vox
!!!EED: Helmut Schaffrath
!!!EEV: 1.0
*-
